assets/img/common/true-logo.svg

<?xml version="1.0" encoding="utf-8"?>
<!-- Generator: Adobe Illustrator 19.2.0, SVG Export Plug-In . SVG Version: 6.00 Build 0)  -->
<svg version="1.1" id="Layer_1" xmlns="http://www.w3.org/2000/svg" xmlns:xlink="http://www.w3.org/1999/xlink" x="0px" y="0px"
	 viewBox="0 0 214.5 80" style="enable-background:new 0 0 214.5 80;" xml:space="preserve">
<style type="text/css">
	.st0{fill:#1D1C1D;}
</style>
<g id="LOGO">
	<polygon class="st0" points="28.9,67.6 28.9,12.3 59.6,12.3 59.6,24.6 41.2,24.6 41.2,67.6 	"/>
	<circle class="st0" cx="15.3" cy="18.8" r="8.1"/>
	<circle class="st0" cx="199.2" cy="60.6" r="8.1"/>
	<path class="st0" d="M91.7,24.7V35h-3.1c-3.5,0-6.3,0.9-8.4,2.8S77,42.5,77,46.2v21.4H65.3v-43h10.8v5.2c3-3.8,6.9-5.7,11.8-5.7
		C89.3,24.1,90.6,24.3,91.7,24.7z"/>
	<path class="st0" d="M138.1,48.7c0,6-1.9,10.8-5.6,14.4c-3.7,3.7-8.4,5.5-14.1,5.5c-5.8,0-10.5-1.8-14.3-5.5
		c-3.7-3.6-5.6-8.5-5.6-14.5v-24h11.7v25c0,2.5,0.8,4.5,2.3,6c1.5,1.5,3.5,2.3,5.9,2.3c2.3,0,4.2-0.8,5.7-2.3c1.5-1.5,2.3-3.5,2.3-6
		v-25h11.7V48.7z"/>
	<path class="st0" d="M186.3,50.1h-30.2c0.8,2.7,2.2,4.8,4.3,6.3c2.1,1.5,4.7,2.2,7.9,2.2c4.2,0,8.2-1.4,12-4.3l4.9,8
		c-5.1,4.3-10.8,6.4-17.2,6.4c-6.8,0-12.4-2.2-16.8-6.5c-4.5-4.3-6.7-9.6-6.7-16c0-6.3,2.2-11.6,6.5-16c4.3-4.3,9.6-6.5,16-6.5
		c6,0,10.8,1.9,14.6,5.7c3.8,3.8,5.6,8.6,5.6,14.2C187.1,45.7,186.8,47.9,186.3,50.1z M159.9,35.5c-1.9,1.6-3.1,3.7-3.8,6.3h19.6
		c-0.1-2.7-1-4.8-2.8-6.3c-1.8-1.6-4-2.3-6.5-2.3C163.9,33.1,161.7,33.9,159.9,35.5z"/>
</g>
</svg>

<?xml version="1.0" encoding="UTF-8" standalone="no"?>
<!DOCTYPE svg PUBLIC "-//W3C//DTD SVG 1.1//EN" "http://www.w3.org/Graphics/SVG/1.1/DTD/svg11.dtd">
<svg width="100%" height="100%" viewBox="0 0 50 15" version="1.1" xmlns="http://www.w3.org/2000/svg" xmlns:xlink="http://www.w3.org/1999/xlink" xml:space="preserve" xmlns:serif="http://www.serif.com/" style="fill-rule:evenodd;clip-rule:evenodd;stroke-linejoin:round;stroke-miterlimit:1.41421;">
    <style type="text/css">
        #LOGO path, 
        #LOGO circle {
            fill: #1D1C1D !important;
        }
    </style>
    <g transform="matrix(1,0,0,1,-7.2,-10.7)">
        <g id="LOGO" transform="matrix(0.249875,0,0,0.249875,5.4009,8.02634)">
            <path d="M28.9,67.6L28.9,12.3L59.6,12.3L59.6,24.6L41.2,24.6L41.2,67.6L28.9,67.6Z" style="fill:rgb(29,28,29);fill-rule:nonzero;"/>
            <circle cx="15.3" cy="18.8" r="8.1" style="fill:rgb(29,28,29);"/>
            <circle cx="199.2" cy="60.6" r="8.1" style="fill:rgb(29,28,29);"/>
            <path d="M91.7,24.7L91.7,35L88.6,35C85.1,35 82.3,35.9 80.2,37.8C78.1,39.7 77,42.5 77,46.2L77,67.6L65.3,67.6L65.3,24.6L76.1,24.6L76.1,29.8C79.1,26 83,24.1 87.9,24.1C89.3,24.1 90.6,24.3 91.7,24.7Z" style="fill:rgb(29,28,29);fill-rule:nonzero;"/>
            <path d="M138.1,48.7C138.1,54.7 136.2,59.5 132.5,63.1C128.8,66.8 124.1,68.6 118.4,68.6C112.6,68.6 107.9,66.8 104.1,63.1C100.4,59.5 98.5,54.6 98.5,48.6L98.5,24.6L110.2,24.6L110.2,49.6C110.2,52.1 111,54.1 112.5,55.6C114,57.1 116,57.9 118.4,57.9C120.7,57.9 122.6,57.1 124.1,55.6C125.6,54.1 126.4,52.1 126.4,49.6L126.4,24.6L138.1,24.6L138.1,48.7Z" style="fill:rgb(29,28,29);fill-rule:nonzero;"/>
            <path d="M186.3,50.1L156.1,50.1C156.9,52.8 158.3,54.9 160.4,56.4C162.5,57.9 165.1,58.6 168.3,58.6C172.5,58.6 176.5,57.2 180.3,54.3L185.2,62.3C180.1,66.6 174.4,68.7 168,68.7C161.2,68.7 155.6,66.5 151.2,62.2C146.7,57.9 144.5,52.6 144.5,46.2C144.5,39.9 146.7,34.6 151,30.2C155.3,25.9 160.6,23.7 167,23.7C173,23.7 177.8,25.6 181.6,29.4C185.4,33.2 187.2,38 187.2,43.6C187.1,45.7 186.8,47.9 186.3,50.1ZM159.9,35.5C158,37.1 156.8,39.2 156.1,41.8L175.7,41.8C175.6,39.1 174.7,37 172.9,35.5C171.1,33.9 168.9,33.2 166.4,33.2C163.9,33.1 161.7,33.9 159.9,35.5Z" style="fill:rgb(29,28,29);fill-rule:nonzero;"/>
        </g>
    </g>
</svg>
